X: 10114
T: MARCHIONESS OF HUNTLY'S STRATHSPEY
C: Marshall
R: Strathspey.
%R: strathspey
B: W. Hamilton "Universal Tune-Book" Vol. 1 Glasgow 1844 p.11 #4
S: http://imslp.org/wiki/Hamilton's_Universal_Tune-Book_(Various)
Z: 2016 John Chambers <jc:trillian.mit.edu>
M: C
L: 1/16
K: Bb
% - - - - - - - - - - - - - - - - - - - - - - - - -
|:\
[D3B,3]DF3D EG3TF4 | G3c c3d (ed).c.B (AG).F.E |\
[D3B,3]EF2D2 E2G2TF4 | G3c (BA)(GF) B4B4 :|\
df3B3f d3f (ed).c.B | A3cF3c A2c2F2e2 |
df3B3f d3f (ed).c.B | (AB).c.d (BA).G.F | B4 B,3e |\
df3d3f dfga Hb2 zB | (A2c2)(c2d2) (ed).c.B (AG).F.E |\
[D3B,3]EF2D2 E2G2TF4 | G3c (BA)(GF) B4B4 |]
% - - - - - - - - - - - - - - - - - - - - - - - - -
%%begintext align
%% When danced, this air may be played in A, three sharps.
%%endtext
%%sep 1 1 300

%%sep 1 1 500
%%sep 1 1 500

